icon/pk/weixin-market.svg

<svg viewBox="0 0 48 48" fill="none" xmlns="http://www.w3.org/2000/svg" height="1em" width="1em">
  <path d="M38 14H10C8.89543 14 8 14.8954 8 16V42C8 43.1046 8.89543 44 10 44H38C39.1046 44 40 43.1046 40 42V16C40 14.8954 39.1046 14 38 14Z" fill="#2F88FF" stroke="black" stroke-width="4" stroke-linecap="round" stroke-linejoin="round"/>
  <path d="M17 18V11C17 7.13401 20.134 4 24 4C27.866 4 31 7.13401 31 11V18" stroke="black" stroke-width="4" stroke-linecap="round" stroke-linejoin="round"/>
</svg>

<svg width="48" height="48" fill="none" xmlns="http://www.w3.org/2000/svg"><path d="M38 14H10a2 2 0 0 0-2 2v26a2 2 0 0 0 2 2h28a2 2 0 0 0 2-2V16a2 2 0 0 0-2-2Z" fill="#2F88FF" stroke="#000" stroke-width="4" stroke-linecap="round" stroke-linejoin="round"/><path d="M17 18v-7a7 7 0 1 1 14 0v7" stroke="#000" stroke-width="4" stroke-linecap="round" stroke-linejoin="round"/></svg>
